X:4
T:Untitled
T:from James E Frill's Musick Book  p. 4 top
Z:Sarah Gowan
R:Reel
M:4/4
L:1/8
K:D
DEFG A2 Ad | e2 ef ed B2 | AFdF AFdF | E2 EFEd B,2|
DEFG A2 Ad | e2 ef ed B2 | AFdF AFdF | faef d3 z||
defg afdf | gfga bgeg | fefg afdf | gafg ed B2|
defg afdf | gfga bgeg | fdec dBAG | FdEc d2D2|]
